vercel-v0-dark-logo.svg

<?xml version="1.0" encoding="utf-8"?>
<svg id="v0" xmlns="http://www.w3.org/2000/svg">
  <path fill="#000" d="M13.7688 19.0956L0 3.68759H5.53933L13.6231 12.7337V3.68759H17.7535V17.5746C17.7535 19.6705 15.1654 20.6584 13.7688 19.0956Z"></path>
  <path fill="#000" d="M23.3919 0H32.9188C36.7819 0 39.9136 3.13165 39.9136 6.99475V16.0805H36.0006V6.99475C36.0006 6.90167 35.9969 6.80925 35.9898 6.71766L26.4628 16.079C26.4949 16.08 26.5272 16.0805 26.5595 16.0805H36.0006V19.7762H26.5595C22.6964 19.7762 19.4788 16.6139 19.4788 12.7508V3.68923H23.3919V12.7508C23.3919 12.9253 23.4054 13.0977 23.4316 13.2668L33.1682 3.6995C33.0861 3.6927 33.003 3.68923 32.9188 3.68923H23.3919V0Z"></path>
</svg>

<?xml version="1.0" encoding="utf-8"?>
<!-- Generator: Adobe Illustrator 27.3.1, SVG Export Plug-In . SVG Version: 6.00 Build 0)  -->
<svg version="1.1" id="v0" xmlns="http://www.w3.org/2000/svg" xmlns:xlink="http://www.w3.org/1999/xlink" x="0px" y="0px"
	 viewBox="0 0 39.9 19.9" style="enable-background:new 0 0 39.9 19.9;" xml:space="preserve">
<path d="M13.8,19.1L0,3.7h5.5l8.1,9v-9h4.1v13.9C17.8,19.7,15.2,20.7,13.8,19.1z"/>
<path d="M23.4,0h9.5c3.9,0,7,3.1,7,7v9.1H36V7c0-0.1,0-0.2,0-0.3l-9.5,9.4c0,0,0.1,0,0.1,0H36v3.7h-9.4c-3.9,0-7.1-3.2-7.1-7V3.7
	h3.9v9.1c0,0.2,0,0.3,0,0.5l9.7-9.6c-0.1,0-0.2,0-0.2,0h-9.5V0z"/>
</svg>
